Catalina-dark/status/16/weather-showers-scattered-symbolic.svg

<?xml version="1.0" encoding="UTF-8" standalone="no"?>
<!-- Created with Inkscape (http://www.inkscape.org/) -->

<svg
   xmlns:osb="http://www.openswatchbook.org/uri/2009/osb"
   xmlns:dc="http://purl.org/dc/elements/1.1/"
   xmlns:cc="http://creativecommons.org/ns#"
   xmlns:rdf="http://www.w3.org/1999/02/22-rdf-syntax-ns#"
   xmlns:svg="http://www.w3.org/2000/svg"
   xmlns="http://www.w3.org/2000/svg"
   xmlns:sodipodi="http://sodipodi.sourceforge.net/DTD/sodipodi-0.dtd"
   xmlns:inkscape="http://www.inkscape.org/namespaces/inkscape"
   sodipodi:docname="weather-showers-scattered-symbolic.svg"
   inkscape:export-filename="/home/sam/source-symbolic.png"
   inkscape:export-xdpi="270"
   inkscape:export-ydpi="270"
   height="16"
   id="svg7384"
   style="enable-background:new"
   version="1.1"
   inkscape:version="0.91 r13725"
   width="16.000227">
  <sodipodi:namedview
     inkscape:bbox-nodes="true"
     inkscape:bbox-paths="true"
     bordercolor="#666666"
     borderlayer="false"
     borderopacity="1"
     inkscape:current-layer="svg7384"
     inkscape:cx="-6.7774262"
     inkscape:cy="6.6167734"
     gridtolerance="10"
     inkscape:guide-bbox="true"
     guidetolerance="10"
     id="namedview88"
     inkscape:object-nodes="true"
     inkscape:object-paths="true"
     objecttolerance="10"
     pagecolor="#f7f7f7"
     inkscape:pageopacity="1"
     inkscape:pageshadow="2"
     showborder="true"
     showgrid="false"
     showguides="true"
     inkscape:showpageshadow="false"
     inkscape:snap-bbox="true"
     inkscape:snap-bbox-edge-midpoints="false"
     inkscape:snap-bbox-midpoints="false"
     inkscape:snap-center="false"
     inkscape:snap-global="true"
     inkscape:snap-grids="true"
     inkscape:snap-intersection-paths="true"
     inkscape:snap-midpoints="true"
     inkscape:snap-nodes="true"
     inkscape:snap-object-midpoints="true"
     inkscape:snap-others="true"
     inkscape:snap-page="false"
     inkscape:snap-smooth-nodes="true"
     inkscape:snap-to-guides="true"
     inkscape:window-height="706"
     inkscape:window-maximized="1"
     inkscape:window-width="1366"
     inkscape:window-x="0"
     inkscape:window-y="32"
     inkscape:zoom="22.627417">
    <inkscape:grid
       color="#000000"
       dotted="false"
       empcolor="#0800ff"
       empopacity="0.4627451"
       empspacing="4"
       enabled="true"
       id="grid4866"
       opacity="0.16470588"
       originx="-264px"
       originy="-552.00336px"
       snapvisiblegridlinesonly="true"
       spacingx="0.25px"
       spacingy="0.25px"
       type="xygrid"
       visible="true" />
  </sodipodi:namedview>
  <metadata
     id="metadata90">
    <rdf:RDF>
      <cc:Work
         rdf:about="">
        <dc:format>image/svg+xml</dc:format>
        <dc:type
           rdf:resource="http://purl.org/dc/dcmitype/StillImage" />
        <dc:title>Paper Symbolic Icon Theme</dc:title>
      </cc:Work>
    </rdf:RDF>
  </metadata>
  <title
     id="title8473">Paper Symbolic Icon Theme</title>
  <defs
     id="defs7386">
    <linearGradient
       id="linearGradient5606"
       osb:paint="solid">
      <stop
         id="stop5608"
         offset="0"
         style="stop-color:#000000;stop-opacity:1;" />
    </linearGradient>
    <filter
       color-interpolation-filters="sRGB"
       id="filter7554-8">
      <feBlend
         mode="darken"
         in2="BackgroundImage"
         id="feBlend7556-7" />
    </filter>
  </defs>
  <path
     style="display:inline;fill:#bebebe;fill-opacity:1;enable-background:new"
     d="m 7.6680848,12.312695 -0.718762,-1.243813 -0.718761,1.243813 c -0.32306,0.508486 -0.40271,1.024617 0,1.432425 C 6.4395638,13.964317 6.6944438,14 6.9493228,14 c 0.25488,0 0.50976,-0.03568 0.718762,-0.25488 0.40271,-0.407808 0.368917,-0.861821 0,-1.432425 z"
     id="path9903"
     inkscape:connector-curvature="0"
     sodipodi:nodetypes="ccccscc" />
  <path
     inkscape:connector-curvature="0"
     style="display:inline;fill:#bebebe;fill-opacity:1;enable-background:new"
     d="M 4.727273,10.857143 A 0.54545455,0.57142856 0 0 1 5.272727,11.428571 0.54545455,0.57142856 0 0 1 4.727273,12 2.7272727,2.8571428 0 0 1 2,9.142857 2.7272727,2.8571428 0 0 1 4.727273,6.2857143 C 5.272727,4.9428571 6.527273,4 8,4 9.8709091,4 11.403637,5.52 11.545455,7.4457142 L 11.818182,7.428571 A 2.1818182,2.2857143 0 0 1 14,9.714285 2.1818182,2.2857143 0 0 1 11.818182,11.999999 l -0.545455,0 a 0.54545455,0.57142856 0 0 1 -0.545454,-0.571428 0.54545455,0.57142856 0 0 1 0.545454,-0.571428 l 0.545455,0 A 1.0909091,1.1428571 0 0 0 12.909091,9.714286 1.0909091,1.1428571 0 0 0 11.818182,8.5714284 l -1.090909,0 0,-0.5714285 A 2.7272727,2.8571428 0 0 0 8,5.1428571 c -1.363636,0 -2.481818,1.0399999 -2.694545,2.3942856 -0.18,-0.068572 -0.376364,-0.1085713 -0.578182,-0.1085713 A 1.6363636,1.7142856 0 0 0 3.090909,9.142857 1.6363636,1.7142856 0 0 0 4.727273,10.857143"
     id="path9931" />
  <path
     sodipodi:nodetypes="ccccscc"
     inkscape:connector-curvature="0"
     id="path9979"
     d="M 9.6680849,10.875195 8.9493228,9.6313818 8.2305618,10.875195 c -0.32306,0.508486 -0.40271,1.024617 0,1.432425 0.209002,0.219197 0.463882,0.25488 0.718761,0.25488 0.2548801,0 0.5097601,-0.03568 0.7187621,-0.25488 0.4027101,-0.407808 0.3689171,-0.861821 0,-1.432425 z"
     style="display:inline;fill:#bebebe;fill-opacity:1;enable-background:new" />
</svg>

<svg width="16" height="16" enable-background="new" version="1.1" xmlns="http://www.w3.org/2000/svg">
<path d="m7.6681 12.313-0.71876-1.2438-0.71876 1.2438c-0.32306 0.50849-0.40271 1.0246 0 1.4324 0.209 0.2192 0.46388 0.25488 0.71876 0.25488 0.25488 0 0.50976-0.03568 0.71876-0.25488 0.40271-0.40781 0.36892-0.86182 0-1.4324z" enable-background="new" fill="#bebebe"/>
<path d="m4.7273 10.857a0.54545 0.57143 0 0 1 0.54545 0.57143 0.54545 0.57143 0 0 1-0.54545 0.57143 2.7273 2.8571 0 0 1-2.7273-2.8571 2.7273 2.8571 0 0 1 2.7273-2.8571c0.54545-1.3429 1.8-2.2857 3.2727-2.2857 1.8709 0 3.4036 1.52 3.5455 3.4457l0.27273-0.017143a2.1818 2.2857 0 0 1 2.1818 2.2857 2.1818 2.2857 0 0 1-2.1818 2.2857h-0.54546a0.54545 0.57143 0 0 1-0.54545-0.57143 0.54545 0.57143 0 0 1 0.54545-0.57143h0.54546a1.0909 1.1429 0 0 0 1.0909-1.1429 1.0909 1.1429 0 0 0-1.0909-1.1429h-1.0909v-0.57143a2.7273 2.8571 0 0 0-2.7273-2.8571c-1.3636 0-2.4818 1.04-2.6945 2.3943-0.18-0.068572-0.37636-0.10857-0.57818-0.10857a1.6364 1.7143 0 0 0-1.6364 1.7143 1.6364 1.7143 0 0 0 1.6364 1.7143" enable-background="new" fill="#bebebe"/>
<path d="m9.6681 10.875-0.71876-1.2438-0.71876 1.2438c-0.32306 0.50849-0.40271 1.0246 0 1.4324 0.209 0.2192 0.46388 0.25488 0.71876 0.25488 0.25488 0 0.50976-0.03568 0.71876-0.25488 0.40271-0.40781 0.36892-0.86182 0-1.4324z" enable-background="new" fill="#bebebe"/>
</svg>
